X: 33
T: The Palatine's Daughter
M:2/2
L:1/4
Q:200
R:Polka
K:D
Z:Rob Greenway
S:Rob Greenway <robgreenway@yahoo.com> IrishTradAccord 2005-4-8
a | fd fa | ge f>e   | de fe | dc A2 | AA A/B/A/F/ | GG A/B/c/A/ | d2 c/d/e/c/ | d2 d :|
A | de fg | af gf/g/ | ab ga | fd ea | af ge       | fd e>c      | de fe       | dc Aa |
    ab ga | fd e>c   | de fe | dc A2 | AA A/B/A/F/ | GG A/B/c/A/ | d2 c/d/e/c/ | d2 d |]
%%sep 1 1 500
